assets/svgs/activities/sport/Sport2.svg

<svg id="emoji" viewBox="0 0 72 72" xmlns="http://www.w3.org/2000/svg">
  <g id="color">
    <path fill="#d0cfce" d="M24.239,20H17.0281a7.1536,7.1536,0,0,1,.0252,2h7.1534A7.18,7.18,0,0,1,24.239,20Z"/>
    <path fill="#d0cfce" d="M26.9557,11.3057a6.4946,6.4946,0,0,0-6.3218-6.3219,6.3219,6.3219,0,0,0-6.3219,6.3219l-.0044-.026c.05,2.2573,1.4038,4.4042,2.2124,6.72h8.2325C25.562,15.6937,26.9061,13.5545,26.9557,11.3057Z"/>
    <path fill="#d0cfce" d="M27.2917,27.47A11.7467,11.7467,0,0,1,24.78,24H16.471a11.7743,11.7743,0,0,1-2.4995,3.4438c-9.2582,9.2582-5.8275,25.063,1.1162,39.53L15,67H26.1756C33.1192,52.5328,36.55,36.7281,27.2917,27.47Z"/>
    <path fill="#ea5a47" d="M24.2067,22H17.0533a7.1754,7.1754,0,0,1-.5823,2H24.78A7.1557,7.1557,0,0,1,24.2067,22Z"/>
    <path fill="#ea5a47" d="M24.7525,18H16.52a10.7607,10.7607,0,0,1,.5081,2H24.239A10.8478,10.8478,0,0,1,24.7525,18Z"/>
    <path fill="#9b9b9a" d="M22.1624,22H24.206a7.1759,7.1759,0,0,1,.0323-2H22.173C22.1417,20.6477,22.1332,21.3118,22.1624,22Z"/>
    <path fill="#9b9b9a" d="M23.0568,11.3057A63.054,63.054,0,0,1,22.34,18h2.4118c.8095-2.3063,2.1536-4.4455,2.2032-6.6943a6.5112,6.5112,0,0,0-5.7781-6.2914C22.2321,5.3206,23.0783,8.3113,23.0568,11.3057Z"/>
    <path fill="#9b9b9a" d="M27.291,27.47A11.7454,11.7454,0,0,1,24.7792,24h-2.43a20.8439,20.8439,0,0,0,.8172,3.47c3.0122,9.2582,1.896,25.0629-.3631,39.53l3.3482-.3277C33.0948,52.2052,36.5492,36.7281,27.291,27.47Z"/>
    <path fill="#d22f27" d="M22.3489,24h2.43a7.1587,7.1587,0,0,1-.5732-2H22.1624A19.7444,19.7444,0,0,0,22.3489,24Z"/>
    <path fill="#d22f27" d="M22.173,20h2.0653a10.84,10.84,0,0,1,.5135-2H22.34C22.2656,18.6511,22.2059,19.3159,22.173,20Z"/>
    <path fill="#d0cfce" d="M21,4.9838h-.0007v.02c.0591.0038.1189.0044.1776.01A.636.636,0,0,0,21,4.9838Z"/>
    <path fill="#d0cfce" d="M41.239,20H34.0281a7.1536,7.1536,0,0,1,.0252,2h7.1534A7.18,7.18,0,0,1,41.239,20Z"/>
    <path fill="#d0cfce" d="M43.9557,11.3057a6.4946,6.4946,0,0,0-6.3218-6.3219,6.3219,6.3219,0,0,0-6.3219,6.3219l-.0044-.026c.05,2.2573,1.4038,4.4042,2.2124,6.72h8.2325C42.562,15.6937,43.9061,13.5545,43.9557,11.3057Z"/>
    <path fill="#d0cfce" d="M44.2917,27.47A11.7467,11.7467,0,0,1,41.78,24H33.471a11.7743,11.7743,0,0,1-2.4995,3.4438c-9.2582,9.2582-5.9133,25.1037,1.03,39.5708L32,67H43.1756C50.1192,52.5328,53.55,36.7281,44.2917,27.47Z"/>
    <path fill="#ea5a47" d="M41.2067,22H34.0533a7.1754,7.1754,0,0,1-.5823,2H41.78A7.1557,7.1557,0,0,1,41.2067,22Z"/>
    <path fill="#ea5a47" d="M41.7525,18H33.52a10.7607,10.7607,0,0,1,.5081,2H41.239A10.8478,10.8478,0,0,1,41.7525,18Z"/>
    <path fill="#9b9b9a" d="M39.1624,22H41.206a7.1759,7.1759,0,0,1,.0323-2H39.173C39.1417,20.6477,39.1332,21.3118,39.1624,22Z"/>
    <path fill="#9b9b9a" d="M40.0568,11.3057A63.054,63.054,0,0,1,39.34,18h2.4118c.8095-2.3063,2.1536-4.4455,2.2032-6.6943a6.5112,6.5112,0,0,0-5.7781-6.2914C39.2321,5.3206,40.0783,8.3113,40.0568,11.3057Z"/>
    <path fill="#9b9b9a" d="M44.291,27.47A11.7454,11.7454,0,0,1,41.7792,24h-2.43a20.8439,20.8439,0,0,0,.8172,3.47c3.0122,9.2582,1.896,25.0629-.3631,39.53h3.3719C50.1185,52.5328,53.5492,36.7281,44.291,27.47Z"/>
    <path fill="#d22f27" d="M39.3489,24h2.43a7.1587,7.1587,0,0,1-.5732-2H39.1624A19.7444,19.7444,0,0,0,39.3489,24Z"/>
    <path fill="#d22f27" d="M39.173,20h2.0653a10.84,10.84,0,0,1,.5135-2H39.34C39.2656,18.6511,39.2059,19.3159,39.173,20Z"/>
    <path fill="#d0cfce" d="M38,4.9838h-.0007v.02c.0591.0038.1189.0044.1776.01A.636.636,0,0,0,38,4.9838Z"/>
    <circle cx="19.9983" cy="52.0915" r="15" fill="#9b9b9a"/>
    <path fill="#3F3F3F" d="M27.6018,39.1605A15.0029,15.0029,0,0,1,9.0328,62.3329,15.0041,15.0041,0,0,0,34.9983,52.0915,14.8862,14.8862,0,0,0,27.6018,39.1605Z"/>
    <path fill="#d0cfce" d="M58.239,20H51.0281a7.1536,7.1536,0,0,1,.0252,2h7.1534A7.18,7.18,0,0,1,58.239,20Z"/>
    <path fill="#d0cfce" d="M60.9557,11.3057a6.4946,6.4946,0,0,0-6.3218-6.3219,6.3219,6.3219,0,0,0-6.3219,6.3219l-.0044-.026c.05,2.2573,1.4038,4.4042,2.2124,6.72h8.2325C59.562,15.6937,60.9061,13.5545,60.9557,11.3057Z"/>
    <path fill="#d0cfce" d="M61.2917,27.47A11.7467,11.7467,0,0,1,58.78,24H50.471a11.7743,11.7743,0,0,1-2.4995,3.4438C38.7133,36.702,42.0563,52.5329,49,67H60.1756C67.1192,52.5328,70.55,36.7281,61.2917,27.47Z"/>
    <path fill="#ea5a47" d="M58.2067,22H51.0533a7.1754,7.1754,0,0,1-.5823,2H58.78A7.1557,7.1557,0,0,1,58.2067,22Z"/>
    <path fill="#ea5a47" d="M58.7525,18H50.52a10.7607,10.7607,0,0,1,.5081,2H58.239A10.8478,10.8478,0,0,1,58.7525,18Z"/>
    <path fill="#9b9b9a" d="M56.1624,22H58.206a7.1759,7.1759,0,0,1,.0323-2H56.173C56.1417,20.6477,56.1332,21.3118,56.1624,22Z"/>
    <path fill="#9b9b9a" d="M57.0568,11.3057A63.054,63.054,0,0,1,56.34,18h2.4118c.8095-2.3063,2.1536-4.4455,2.2032-6.6943a6.5112,6.5112,0,0,0-5.7781-6.2914C56.2321,5.3206,57.0783,8.3113,57.0568,11.3057Z"/>
    <path fill="#9b9b9a" d="M61.291,27.47A11.7454,11.7454,0,0,1,58.7792,24h-2.43a20.8439,20.8439,0,0,0,.8172,3.47c3.0122,9.2582,1.896,25.0629-.3631,39.53h3.3719C67.1185,52.5328,70.5492,36.7281,61.291,27.47Z"/>
    <path fill="#d22f27" d="M56.3489,24h2.43a7.1587,7.1587,0,0,1-.5732-2H56.1624A19.7444,19.7444,0,0,0,56.3489,24Z"/>
    <path fill="#d22f27" d="M56.173,20h2.0653a10.84,10.84,0,0,1,.5135-2H56.34C56.2656,18.6511,56.2059,19.3159,56.173,20Z"/>
    <path fill="#d0cfce" d="M55,4.9838h-.0007v.02c.0591.0038.1189.0044.1776.01A.636.636,0,0,0,55,4.9838Z"/>
  </g>
  <g id="line">
    <circle cx="19.9983" cy="52.0915" r="15" fill="none" stroke="#000" stroke-linecap="round" stroke-linejoin="round" stroke-width="2"/>
    <circle cx="16.197" cy="47.6524" r="2"/>
    <circle cx="19.777" cy="51.6524" r="2"/>
    <circle cx="12.4566" cy="53.6524" r="2"/>
    <path fill="none" stroke="#000" stroke-linecap="round" stroke-linejoin="round" stroke-width="2.3031" d="M8.7027,37.8423a19.06,19.06,0,0,1,5.2688-10.3984c6.8233-6.8233.445-11.226.336-16.1643l.0045.0261a6.3219,6.3219,0,0,1,6.3219-6.3219,6.4947,6.4947,0,0,1,6.3218,6.3219c-.1053,4.7754-6.0734,9.05-.2966,15.497"/>
    <path fill="none" stroke="#000" stroke-linecap="round" stroke-linejoin="round" stroke-width="2.3031" d="M26.3992,35.0074a18.4794,18.4794,0,0,1,4.5723-7.5635c6.8233-6.8233.445-11.226.336-16.1643l.0045.0261a6.3219,6.3219,0,0,1,6.3219-6.3219,6.4947,6.4947,0,0,1,6.3218,6.3219c-.1052,4.7674-6.0534,9.0357-.3255,15.4646"/>
    <path fill="none" stroke="#000" stroke-linecap="round" stroke-linejoin="round" stroke-width="2.3031" d="M49,67c-6.9436-14.4671-10.2867-30.298-1.0285-39.5561,6.8233-6.8233.445-11.226.336-16.1643l.0045.0261a6.3219,6.3219,0,0,1,6.3219-6.3219,6.4947,6.4947,0,0,1,6.3218,6.3219c-.1089,4.9383-6.4872,9.3409.3361,16.1642C70.55,36.7281,67.1192,52.5329,60.1756,67Z"/>
    <polyline fill="none" stroke="#000" stroke-linecap="round" stroke-linejoin="round" stroke-width="2.0967" points="32.321 65.557 32.703 66.902 42.547 66.902 43.784 63.329"/>
  </g>
</svg>

<svg xmlns="http://www.w3.org/2000/svg" viewBox="0 0 72 72"><path fill="#d0cfce" d="M24.239 20h-7.21a7.154 7.154 0 01.024 2h7.154a7.18 7.18 0 01.032-2zM26.956 11.306a6.495 6.495 0 00-6.322-6.322 6.322 6.322 0 00-6.322 6.322l-.004-.026c.05 2.257 1.403 4.404 2.212 6.72h8.232c.81-2.306 2.154-4.445 2.204-6.694zM27.292 27.47A11.747 11.747 0 0124.78 24h-8.309a11.774 11.774 0 01-2.5 3.444c-9.258 9.258-5.827 25.063 1.117 39.53L15 67h11.176c6.943-14.467 10.374-30.272 1.116-39.53z"/><path fill="#ea5a47" d="M24.207 22h-7.154a7.175 7.175 0 01-.582 2h8.309a7.156 7.156 0 01-.573-2zM24.753 18H16.52a10.76 10.76 0 01.508 2h7.211a10.848 10.848 0 01.514-2z"/><path fill="#9b9b9a" d="M22.162 22h2.044a7.176 7.176 0 01.032-2h-2.065c-.031.648-.04 1.312-.01 2zM23.057 11.306A63.054 63.054 0 0122.34 18h2.412c.81-2.306 2.153-4.446 2.203-6.694a6.511 6.511 0 00-5.778-6.292c1.055.307 1.901 3.297 1.88 6.292zM27.291 27.47A11.745 11.745 0 0124.779 24h-2.43a20.844 20.844 0 00.817 3.47c3.013 9.258 1.896 25.063-.363 39.53l3.348-.328c6.944-14.467 10.398-29.944 1.14-39.202z"/><path fill="#d22f27" d="M22.349 24h2.43a7.159 7.159 0 01-.573-2h-2.044a19.744 19.744 0 00.187 2zM22.173 20h2.065a10.84 10.84 0 01.514-2H22.34a30.448 30.448 0 00-.167 2z"/><path fill="#d0cfce" d="M21 4.984v.02c.058.004.118.004.177.01a.636.636 0 00-.177-.03zM41.239 20h-7.21a7.154 7.154 0 01.024 2h7.154a7.18 7.18 0 01.032-2zM43.956 11.306a6.495 6.495 0 00-6.322-6.322 6.322 6.322 0 00-6.322 6.322l-.004-.026c.05 2.257 1.403 4.404 2.212 6.72h8.232c.81-2.306 2.154-4.445 2.204-6.694zM44.292 27.47A11.747 11.747 0 0141.78 24h-8.309a11.774 11.774 0 01-2.5 3.444c-9.258 9.258-5.913 25.104 1.03 39.57L32 67h11.176c6.943-14.467 10.374-30.272 1.116-39.53z"/><path fill="#ea5a47" d="M41.207 22h-7.154a7.175 7.175 0 01-.582 2h8.309a7.156 7.156 0 01-.573-2zM41.752 18H33.52a10.76 10.76 0 01.508 2h7.211a10.848 10.848 0 01.514-2z"/><path fill="#9b9b9a" d="M39.162 22h2.044a7.176 7.176 0 01.032-2h-2.065c-.031.648-.04 1.312-.01 2zM40.057 11.306A63.054 63.054 0 0139.34 18h2.412c.81-2.306 2.153-4.446 2.203-6.694a6.511 6.511 0 00-5.778-6.292c1.055.307 1.901 3.297 1.88 6.292zM44.291 27.47A11.745 11.745 0 0141.779 24h-2.43a20.844 20.844 0 00.817 3.47c3.013 9.258 1.896 25.063-.363 39.53h3.372c6.944-14.467 10.374-30.272 1.116-39.53z"/><path fill="#d22f27" d="M39.349 24h2.43a7.159 7.159 0 01-.573-2h-2.044a19.744 19.744 0 00.187 2zM39.173 20h2.065a10.84 10.84 0 01.514-2H39.34a30.448 30.448 0 00-.167 2z"/><path fill="#d0cfce" d="M38 4.984v.02c.058.004.118.004.177.01a.636.636 0 00-.177-.03z"/><circle cx="19.998" cy="52.092" r="15" fill="#9b9b9a"/><path fill="#3F3F3F" d="M27.602 39.16a15.003 15.003 0 01-18.57 23.173 15.004 15.004 0 0025.966-10.241 14.886 14.886 0 00-7.396-12.931z"/><path fill="#d0cfce" d="M58.239 20h-7.21a7.154 7.154 0 01.024 2h7.154a7.18 7.18 0 01.032-2zM60.956 11.306a6.495 6.495 0 00-6.322-6.322 6.322 6.322 0 00-6.322 6.322l-.004-.026c.05 2.257 1.403 4.404 2.212 6.72h8.232c.81-2.306 2.154-4.445 2.204-6.694zM61.292 27.47A11.747 11.747 0 0158.78 24h-8.309a11.774 11.774 0 01-2.5 3.444C38.713 36.702 42.056 52.533 49 67h11.176c6.943-14.467 10.374-30.272 1.116-39.53z"/><path fill="#ea5a47" d="M58.207 22h-7.154a7.175 7.175 0 01-.582 2h8.309a7.156 7.156 0 01-.573-2zM58.752 18H50.52a10.76 10.76 0 01.508 2h7.211a10.848 10.848 0 01.514-2z"/><path fill="#9b9b9a" d="M56.162 22h2.044a7.176 7.176 0 01.032-2h-2.065c-.031.648-.04 1.312-.01 2zM57.057 11.306A63.054 63.054 0 0156.34 18h2.412c.81-2.306 2.153-4.446 2.203-6.694a6.511 6.511 0 00-5.778-6.292c1.055.307 1.901 3.297 1.88 6.292zM61.291 27.47A11.745 11.745 0 0158.779 24h-2.43a20.844 20.844 0 00.817 3.47c3.013 9.258 1.896 25.063-.363 39.53h3.372c6.944-14.467 10.374-30.272 1.116-39.53z"/><path fill="#d22f27" d="M56.349 24h2.43a7.159 7.159 0 01-.573-2h-2.044a19.744 19.744 0 00.187 2zM56.173 20h2.065a10.84 10.84 0 01.514-2H56.34a30.448 30.448 0 00-.167 2z"/><path fill="#d0cfce" d="M55 4.984v.02c.058.004.118.004.177.01a.636.636 0 00-.177-.03z"/><g><circle cx="19.998" cy="52.092" r="15" fill="none" stroke="#000" stroke-linecap="round" stroke-linejoin="round" stroke-width="2"/><circle cx="16.197" cy="47.652" r="2"/><circle cx="19.777" cy="51.652" r="2"/><circle cx="12.457" cy="53.652" r="2"/><path fill="none" stroke="#000" stroke-linecap="round" stroke-linejoin="round" stroke-width="2.303" d="M8.703 37.842a19.06 19.06 0 015.269-10.398c6.823-6.823.444-11.226.335-16.164l.005.026a6.322 6.322 0 016.322-6.322 6.495 6.495 0 016.322 6.322c-.106 4.775-6.074 9.05-.297 15.497M26.4 35.007a18.48 18.48 0 014.572-7.563c6.823-6.823.444-11.226.335-16.164l.005.026a6.322 6.322 0 016.322-6.322 6.495 6.495 0 016.322 6.322c-.106 4.767-6.054 9.035-.326 15.464M49 67c-6.944-14.467-10.287-30.298-1.028-39.556 6.823-6.823.444-11.226.335-16.164l.005.026a6.322 6.322 0 016.322-6.322 6.495 6.495 0 016.322 6.322c-.11 4.938-6.488 9.34.336 16.164 9.258 9.258 5.827 25.063-1.116 39.53z"/><path fill="none" stroke="#000" stroke-linecap="round" stroke-linejoin="round" stroke-width="2.097" d="M32.321 65.557l.382 1.345h9.844l1.237-3.573"/></g></svg>
